X:820
T:Lad O'Beirne's
R:reel
C:Lad O'Beirne
D:Josephine Marsh
Z:id:hn-reel-820
M:C|
L:1/8
K:F
d2cA dAcA|GcAF GFDF|CF~F2 CFAc|dcde fagf|
d2cA dAcA|GcAF GFDF|CF~F2 DFBd|1 cbag f3e:|2 cbag f3g||
a2gf afgf|dgfd cBAB|c2cA cdfa|gfga g2fg|
a2gf afgf|dgfd cBAB|cdcA cdfa|gfga f3g|
a2gf afgf|dgfd cBAB|c2cA cdfa|gfga bagf|
~a3g ~f3c|dcfd cAFD|CF~F2 DFBd|cbag f3e||
